public/assets/img/logo.svg

<?xml version="1.0" encoding="UTF-8" standalone="no"?>
<svg width="708px" height="124px" viewBox="0 0 708 124" version="1.1" xmlns="http://www.w3.org/2000/svg" xmlns:xlink="http://www.w3.org/1999/xlink" xmlns:sketch="http://www.bohemiancoding.com/sketch/ns">
    <!-- Generator: Sketch 3.5.1 (25234) - http://www.bohemiancoding.com/sketch -->
    <title>Fill 23</title>
    <desc>Created with Sketch.</desc>
    <defs></defs>
    <g id="Page-1" stroke="none" stroke-width="1" fill="none" fill-rule="evenodd" sketch:type="MSPage">
        <g sketch:type="MSLayerGroup" id="Fill-23" fill="#FFFFFF">
            <path d="M617.2823,112.126 C617.2823,118.684 611.9673,124 605.4083,124 C598.8483,124 593.5343,118.684 593.5343,112.126 L593.5343,56.213 C593.5343,49.654 598.8483,44.338 605.4083,44.338 C611.9673,44.338 617.2823,49.654 617.2823,56.213 L617.2823,112.126 Z M620.7422,15.7744 C620.7422,24.2444 613.8772,31.1084 605.4082,31.1084 C596.9382,31.1084 590.0742,24.2444 590.0742,15.7744 C590.0742,7.3044 596.9382,0.4404 605.4082,0.4404 C613.8772,0.4404 620.7422,7.3044 620.7422,15.7744 Z M654.1807,55.6407 L654.1807,57.5857 C657.0447,52.9417 661.0957,49.3597 666.3357,46.8377 C671.5717,44.3197 677.5997,43.0587 684.4177,43.0587 C689.4577,43.0587 693.5347,43.9727 696.6477,45.8007 C699.7587,47.6317 702.1547,50.0027 703.8347,52.9167 C705.5167,55.8337 706.6267,59.0207 707.1717,62.4777 C707.7127,65.9377 707.9857,69.2957 707.9857,72.5567 L707.9857,123.7587 L684.2697,123.7587 L684.2697,78.6327 C684.2697,73.4977 683.3067,69.7647 681.3797,67.4437 C679.4527,65.1207 676.9087,63.9587 673.7457,63.9587 C672.0657,63.9587 670.3607,64.3057 668.6327,64.9957 C666.9017,65.6887 665.2717,66.6527 663.7417,67.8877 C662.2067,69.1237 660.7997,70.5807 659.5177,72.2587 C658.2307,73.9427 657.2417,75.7677 656.5517,77.7457 L656.5517,123.7587 L632.8357,123.7587 L632.8357,55.3437 L632.8357,55.0747 C632.9067,49.3617 637.4557,44.7407 643.1397,44.5407 L643.8957,44.5407 C649.4767,44.7367 653.9567,49.2037 654.1807,54.7767 L654.1807,55.6407 Z M223.1054,68.0345 C221.4244,63.0435 219.1044,58.7215 216.1394,55.0625 C213.1754,51.4095 209.6404,48.5175 205.5424,46.3915 C201.4394,44.2695 196.9194,43.2055 191.9794,43.2055 C186.0504,43.2055 180.9364,44.4645 176.6374,46.9845 C172.3384,49.5045 168.9044,52.9895 166.3344,57.4335 L166.3344,12.3855 L166.3204,12.3855 C166.3204,12.3515 166.3264,12.3205 166.3264,12.2865 C166.3264,5.7445 161.0224,0.4405 154.4814,0.4405 C147.9384,0.4405 142.6354,5.7445 142.6354,12.2865 C142.6354,12.3205 142.6404,12.3515 142.6404,12.3855 L142.6194,12.3855 L142.6194,123.9045 L143.2944,123.9045 L143.2944,123.9175 L166.1944,123.9175 L166.1944,113.7345 C168.3254,116.3475 170.8614,118.5125 173.8214,120.2105 C178.2164,122.7285 183.3814,123.9895 189.3114,123.9895 C194.4484,123.9895 199.2424,122.9735 203.6884,120.9495 C208.1354,118.9245 211.9894,116.1095 215.2504,112.5015 C218.5104,108.8955 221.0534,104.6445 222.8844,99.7545 C224.7114,94.8625 225.6264,89.5995 225.6264,83.9675 C225.6264,78.3335 224.7864,73.0245 223.1054,68.0345 Z M199.9834,91.8965 C199.0934,94.3195 197.8344,96.4175 196.2034,98.1975 C194.5724,99.9755 192.5944,101.3835 190.2734,102.4225 C187.9524,103.4595 185.4064,103.9785 182.6394,103.9785 C179.3794,103.9785 176.2664,103.0155 173.3034,101.0885 C170.3374,99.1605 168.0154,96.5185 166.3344,93.1575 L166.3344,76.8525 C168.0154,73.0005 170.4114,69.7885 173.5234,67.2175 C176.6374,64.6505 180.0694,63.3655 183.8264,63.3655 C186.3944,63.3655 188.7404,63.9085 190.8664,64.9945 C192.9914,66.0825 194.8444,67.5645 196.4254,69.4415 C198.0044,71.3195 199.2164,73.5175 200.0564,76.0365 C200.8964,78.5575 201.3174,81.2015 201.3174,83.9675 C201.3174,86.8355 200.8724,89.4765 199.9834,91.8965 Z M348.9497,55.7871 L348.9497,57.7311 C351.8147,53.0881 355.8657,49.5051 361.1057,46.9841 C366.3407,44.4651 372.3697,43.2051 379.1877,43.2051 C384.2277,43.2051 388.3037,44.1191 391.4167,45.9471 C394.5287,47.7771 396.9237,50.1481 398.6047,53.0621 C400.2867,55.9791 401.3967,59.1661 401.9417,62.6231 C402.4827,66.0831 402.7547,69.4411 402.7547,72.7021 L402.7547,123.9041 L379.0387,123.9041 L379.0387,78.7781 C379.0387,73.6441 378.0767,69.9111 376.1497,67.5891 C374.2217,65.2671 371.6777,64.1041 368.5157,64.1041 C366.8347,64.1041 365.1297,64.4511 363.4027,65.1421 C361.6707,65.8351 360.0407,66.7981 358.5107,68.0341 C356.9767,69.2691 355.5697,70.7261 354.2867,72.4051 C352.9997,74.0881 352.0107,75.9141 351.3217,77.8921 L351.3217,123.9041 L327.6047,123.9041 L327.6047,55.4901 L327.6047,55.2201 C327.6767,49.5081 332.2257,44.8861 337.9097,44.6871 L338.6647,44.6871 C344.2457,44.8831 348.7257,49.3501 348.9497,54.9221 L348.9497,55.7871 Z M121.128,55.2868 C117.57,51.5808 113.221,48.6408 108.085,46.4648 C102.944,44.2928 97.064,43.2048 90.445,43.2048 C83.824,43.2048 77.919,44.2928 72.732,46.4648 C67.544,48.6408 63.172,51.6058 59.614,55.3608 C56.056,59.1168 53.337,63.4888 51.461,68.4788 C49.583,73.4688 48.645,78.7788 48.645,84.4128 C48.645,88.9568 49.353,93.3318 50.767,97.5388 C49.61,99.2398 48.058,100.6768 46.07,101.8278 C43.599,103.2638 40.882,103.9788 37.917,103.9788 C35.546,103.9788 33.297,103.4848 31.172,102.4968 C29.047,101.5088 27.194,100.1228 25.615,98.3468 C24.909,97.5548 23.717,95.8848 23.717,89.6788 L23.717,12.3408 C23.72,5.7438 18.416,0.4408 11.874,0.4408 C5.348,0.4408 0.056,5.7208 0.031,12.2398 L0,96.0848 C0,103.0928 4.246,108.6148 7.308,111.7598 C10.915,115.4648 15.313,118.4308 20.5,120.6548 C22.216,121.3898 24.013,121.9918 25.875,122.4848 C29.642,123.4808 33.701,123.9898 38.066,123.9898 C47.056,123.9898 54.69,122.0628 60.967,118.2068 C62.117,117.5008 63.191,116.7448 64.227,115.9658 C66.822,117.8588 69.683,119.4938 72.88,120.8018 C78.068,122.9248 83.923,123.9898 90.445,123.9898 C99.436,123.9898 107.144,122.0628 113.569,118.2068 C119.992,114.3548 124.734,109.3648 127.798,103.2368 L107.64,97.6048 C106.991,99.3148 105.965,100.8128 104.562,102.0988 C103.612,102.9708 102.487,103.7448 101.191,104.4228 C97.978,106.1038 94.645,106.9418 91.186,106.9418 C86.836,106.9418 82.96,105.5858 79.551,102.8678 C76.142,100.1508 74.237,96.1718 73.843,90.9338 L131.356,90.9338 C131.552,89.9488 131.701,88.7838 131.801,87.4518 C131.897,86.1178 131.948,84.7598 131.948,83.3758 C131.948,78.0388 131.034,72.9498 129.206,68.1078 C127.378,63.2678 124.685,58.9918 121.128,55.2868 Z M73.398,76.2598 C73.892,71.4198 75.646,67.5398 78.661,64.6228 C81.673,61.7088 85.503,60.2518 90.148,60.2518 C94.694,60.2518 98.497,61.6848 101.561,64.5498 C104.624,67.4168 106.403,71.3198 106.898,76.2598 L73.398,76.2598 Z M577.9584,68.3285 C576.0804,63.4395 573.3634,59.1385 569.8054,55.4335 C566.2494,51.7285 561.8984,48.7625 556.7624,46.5395 C551.6234,44.3185 545.7424,43.2055 539.1234,43.2055 C532.5014,43.2055 526.5974,44.3185 521.4104,46.5395 C516.2214,48.7625 511.8494,51.7285 508.2914,55.4335 C504.7354,59.1385 502.0404,63.4395 500.2134,68.3285 C498.3844,73.2205 497.4714,78.3335 497.4714,83.6705 C497.4714,89.0075 498.3844,94.1205 500.2134,99.0125 C502.0404,103.9055 504.7354,108.2025 508.2914,111.9075 C511.8494,115.6155 516.2214,118.5565 521.4104,120.7285 C526.5974,122.9005 532.5014,123.9895 539.1234,123.9895 C545.7424,123.9895 551.6474,122.9005 556.8364,120.7285 C562.0244,118.5565 566.3964,115.6155 569.9544,111.9075 C573.5124,108.2025 576.2024,103.9055 578.0324,99.0125 C579.8604,94.1205 580.7754,89.0075 580.7754,83.6705 C580.7754,78.3335 579.8344,73.2205 577.9584,68.3285 Z M554.9834,91.8965 C554.0934,94.4175 552.8824,96.5685 551.3514,98.3465 C549.8184,100.1235 548.0164,101.5085 545.9414,102.4975 C543.8664,103.4845 541.5914,103.9785 539.1234,103.9785 C534.0834,103.9785 529.9334,102.1255 526.6714,98.4205 C523.4114,94.7155 521.7814,89.7985 521.7814,83.6705 C521.7814,80.7075 522.2254,77.9655 523.1154,75.4445 C524.0044,72.9255 525.2124,70.7765 526.7474,68.9975 C528.2774,67.2175 530.1044,65.8345 532.2304,64.8465 C534.3544,63.8595 536.6524,63.3655 539.1234,63.3655 C544.0624,63.3655 548.1654,65.2175 551.4254,68.9235 C554.6874,72.6285 556.3174,77.5445 556.3174,83.6705 C556.3174,86.6365 555.8734,89.3785 554.9834,91.8965 Z M305.2239,55.4335 C301.6659,51.7285 297.3159,48.7625 292.1789,46.5395 C287.0399,44.3185 281.1589,43.2055 274.5399,43.2055 C267.9189,43.2055 262.0159,44.3185 256.8259,46.5395 C251.6399,48.7625 247.2659,51.7285 243.7099,55.4335 C240.1509,59.1385 237.4569,63.4395 235.6299,68.3285 C233.8009,73.2205 232.8879,78.3335 232.8879,83.6705 C232.8879,89.0075 233.8009,94.1205 235.6299,99.0125 C237.4569,103.9055 240.1509,108.2025 243.7099,111.9075 C247.2659,115.6155 251.6399,118.5565 256.8259,120.7285 C262.0159,122.9005 267.9189,123.9895 274.5399,123.9895 C281.1589,123.9895 287.0659,122.9005 292.2529,120.7285 C297.4419,118.5565 301.8129,115.6155 305.3709,111.9075 C308.9289,108.2025 311.6209,103.9055 313.4499,99.0125 C315.2779,94.1205 316.1919,89.0075 316.1919,83.6705 C316.1919,78.3335 315.2519,73.2205 313.3769,68.3285 C311.4979,63.4395 308.7819,59.1385 305.2239,55.4335 Z M290.3999,91.8965 C289.5109,94.4175 288.2989,96.5685 286.7689,98.3465 C285.2349,100.1235 283.4339,101.5085 281.3579,102.4975 C279.2839,103.4845 277.0089,103.9785 274.5399,103.9785 C269.4999,103.9785 265.3499,102.1255 262.0899,98.4205 C258.8289,94.7155 257.1969,89.7985 257.1969,83.6705 C257.1969,80.7075 257.6419,77.9655 258.5319,75.4445 C259.4209,72.9255 260.6299,70.7765 262.1629,68.9975 C263.6939,67.2175 265.5219,65.8345 267.6479,64.8465 C269.7719,63.8595 272.0689,63.3655 274.5399,63.3655 C279.4809,63.3655 283.5819,65.2175 286.8429,68.9235 C290.1039,72.6285 291.7349,77.5445 291.7349,83.6705 C291.7349,86.6365 291.2899,89.3785 290.3999,91.8965 Z M463.5274,101.8282 C461.0564,103.2642 458.3394,103.9782 455.3744,103.9782 C453.0034,103.9782 450.7544,103.4842 448.6304,102.4972 C446.5044,101.5092 444.6514,100.1232 443.0724,98.3462 C441.4894,96.5682 440.2564,94.4182 439.3664,91.8962 C438.4774,89.3792 438.0324,86.5872 438.0324,83.5232 C438.0324,77.3972 439.6854,72.5062 442.9984,68.8492 C446.3074,65.1932 450.4314,63.3652 455.3744,63.3652 C461.3034,63.3652 465.7994,65.8352 468.8624,70.7762 L491.9864,63.8102 C488.9224,57.6822 484.3274,52.7172 478.2024,48.9132 C472.0744,45.1092 464.5134,43.2052 455.5234,43.2052 C448.9014,43.2052 442.9984,44.2932 437.8094,46.4652 C432.6224,48.6402 428.2504,51.5812 424.6914,55.2872 C421.1334,58.9922 418.4154,63.2892 416.5394,68.1822 C414.6604,73.0732 413.7234,78.1862 413.7234,83.5232 C413.7234,88.8602 414.6604,93.9732 416.5394,98.8652 C418.4154,103.7552 421.1574,108.0552 424.7654,111.7602 C428.3724,115.4652 432.7704,118.4302 437.9574,120.6542 C443.1454,122.8792 449.0014,123.9892 455.5234,123.9892 C464.5134,123.9892 472.1474,122.0622 478.4244,118.2072 C484.6984,114.3542 489.2674,109.4132 492.1344,103.3872 L469.0104,96.2702 C467.8264,98.5462 465.9964,100.3982 463.5274,101.8282 Z" sketch:type="MSShapeGroup"></path>
        </g>
    </g>
</svg>

<svg height="124" viewBox="0 0 708 124" width="708" xmlns="http://www.w3.org/2000/svg"><path d="m617.2823 112.126c0 6.558-5.315 11.874-11.874 11.874-6.56 0-11.874-5.316-11.874-11.874v-55.913c0-6.559 5.314-11.875 11.874-11.875 6.559 0 11.874 5.316 11.874 11.875zm3.4599-96.3516c0 8.47-6.865 15.334-15.334 15.334-8.47 0-15.334-6.864-15.334-15.334s6.864-15.334 15.334-15.334c8.469 0 15.334 6.864 15.334 15.334zm33.4385 39.8663v1.945c2.864-4.644 6.915-8.226 12.155-10.748 5.236-2.518 11.264-3.779 18.082-3.779 5.04 0 9.117.914 12.23 2.742 3.111 1.831 5.507 4.202 7.187 7.116 1.682 2.917 2.792 6.104 3.337 9.561.541 3.46.814 6.818.814 10.079v51.202h-23.716v-45.126c0-5.135-.963-8.868-2.89-11.189-1.927-2.323-4.471-3.485-7.634-3.485-1.68 0-3.385.347-5.113 1.037-1.731.693-3.361 1.657-4.891 2.892-1.535 1.236-2.942 2.693-4.224 4.371-1.287 1.684-2.276 3.509-2.966 5.487v46.013h-23.716v-68.415-.269c.071-5.713 4.62-10.334 10.304-10.534h.756c5.581.196 10.061 4.663 10.285 10.236zm-431.0753 12.3938c-1.681-4.991-4.001-9.313-6.966-12.972-2.964-3.653-6.499-6.545-10.597-8.671-4.103-2.122-8.623-3.186-13.563-3.186-5.929 0-11.043 1.259-15.342 3.779s-7.733 6.005-10.303 10.449v-45.048h-.014c0-.034.006-.065.006-.099 0-6.542-5.304-11.846-11.845-11.846-6.543 0-11.846 5.304-11.846 11.846 0 .034.005.065.005.099h-.021v111.519h.675v.013h22.9v-10.183c2.131 2.613 4.667 4.778 7.627 6.476 4.395 2.518 9.56 3.779 15.49 3.779 5.137 0 9.931-1.016 14.377-3.04 4.447-2.025 8.301-4.84 11.562-8.448 3.26-3.606 5.803-7.857 7.634-12.747 1.827-4.892 2.742-10.155 2.742-15.787 0-5.634-.84-10.943-2.521-15.933zm-23.122 23.862c-.89 2.423-2.149 4.521-3.78 6.301-1.631 1.778-3.609 3.186-5.93 4.225-2.321 1.037-4.867 1.556-7.634 1.556-3.26 0-6.373-.963-9.336-2.89-2.966-1.928-5.288-4.57-6.969-7.931v-16.305c1.681-3.852 4.077-7.064 7.189-9.635 3.114-2.567 6.546-3.852 10.303-3.852 2.568 0 4.914.543 7.04 1.629 2.125 1.088 3.978 2.57 5.559 4.447 1.579 1.878 2.791 4.076 3.631 6.595.84 2.521 1.261 5.165 1.261 7.931 0 2.868-.445 5.509-1.334 7.929zm148.9663-36.1094v1.944c2.865-4.643 6.916-8.226 12.156-10.747 5.235-2.519 11.264-3.779 18.082-3.779 5.04 0 9.116.914 12.229 2.742 3.112 1.83 5.507 4.201 7.188 7.115 1.682 2.917 2.792 6.104 3.337 9.561.541 3.46.813 6.818.813 10.079v51.202h-23.716v-45.126c0-5.134-.962-8.867-2.889-11.189-1.928-2.322-4.472-3.485-7.634-3.485-1.681 0-3.386.347-5.113 1.038-1.732.693-3.362 1.656-4.892 2.892-1.534 1.235-2.941 2.692-4.224 4.371-1.287 1.683-2.276 3.509-2.965 5.487v46.012h-23.717v-68.414-.27c.072-5.712 4.621-10.334 10.305-10.533h.755c5.581.196 10.061 4.663 10.285 10.235zm-227.8217-.5003c-3.558-3.706-7.907-6.646-13.043-8.822-5.141-2.172-11.021-3.26-17.64-3.26-6.621 0-12.526 1.088-17.713 3.26-5.188 2.176-9.56 5.141-13.118 8.896-3.558 3.756-6.277 8.128-8.153 13.118-1.878 4.99-2.816 10.3-2.816 15.934 0 4.544.708 8.919 2.122 13.126-1.157 1.701-2.709 3.138-4.697 4.289-2.471 1.436-5.188 2.151-8.153 2.151-2.371 0-4.62-.494-6.745-1.482s-3.978-2.374-5.557-4.15c-.706-.792-1.898-2.462-1.898-8.668v-77.338c.003-6.597-5.301-11.9-11.843-11.9-6.526 0-11.818 5.28-11.843 11.799l-.031 83.845c0 7.008 4.246 12.53 7.308 15.675 3.607 3.705 8.005 6.671 13.192 8.895 1.716.735 3.513 1.337 5.375 1.83 3.767.996 7.826 1.505 12.191 1.505 8.99 0 16.624-1.927 22.901-5.783 1.15-.706 2.224-1.462 3.26-2.241 2.595 1.893 5.456 3.528 8.653 4.836 5.188 2.123 11.043 3.188 17.565 3.188 8.991 0 16.699-1.927 23.124-5.783 6.423-3.852 11.165-8.842 14.229-14.97l-20.158-5.632c-.649 1.71-1.675 3.208-3.078 4.494-.95.872-2.075 1.646-3.371 2.324-3.213 1.681-6.546 2.519-10.005 2.519-4.35 0-8.226-1.356-11.635-4.074-3.409-2.717-5.314-6.696-5.708-11.934h57.513c.196-.985.345-2.15.445-3.482.096-1.334.147-2.692.147-4.076 0-5.337-.914-10.426-2.742-15.268-1.828-4.84-4.521-9.116-8.078-12.821zm-47.73 20.973c.494-4.84 2.248-8.72 5.263-11.637 3.012-2.914 6.842-4.371 11.487-4.371 4.546 0 8.349 1.433 11.413 4.298 3.063 2.867 4.842 6.77 5.337 11.71zm504.5604-7.9313c-1.878-4.889-4.595-9.19-8.153-12.895-3.556-3.705-7.907-6.671-13.043-8.894-5.139-2.221-11.02-3.334-17.639-3.334-6.622 0-12.526 1.113-17.713 3.334-5.189 2.223-9.561 5.189-13.119 8.894-3.556 3.705-6.251 8.006-8.078 12.895-1.829 4.892-2.742 10.005-2.742 15.342s.913 10.45 2.742 15.342c1.827 4.893 4.522 9.19 8.078 12.895 3.558 3.708 7.93 6.649 13.119 8.821 5.187 2.172 11.091 3.261 17.713 3.261 6.619 0 12.524-1.089 17.713-3.261 5.188-2.172 9.56-5.113 13.118-8.821 3.558-3.705 6.248-8.002 8.078-12.895 1.828-4.892 2.743-10.005 2.743-15.342s-.941-10.45-2.817-15.342zm-22.975 23.568c-.89 2.521-2.101 4.672-3.632 6.45-1.533 1.777-3.335 3.162-5.41 4.151-2.075.987-4.35 1.481-6.818 1.481-5.04 0-9.19-1.853-12.452-5.558-3.26-3.705-4.89-8.622-4.89-14.75 0-2.963.444-5.705 1.334-8.226.889-2.519 2.097-4.668 3.632-6.447 1.53-1.78 3.357-3.163 5.483-4.151 2.124-.987 4.422-1.481 6.893-1.481 4.939 0 9.042 1.852 12.302 5.558 3.262 3.705 4.892 8.621 4.892 14.747 0 2.966-.444 5.708-1.334 8.226zm-249.7595-36.463c-3.558-3.705-7.908-6.671-13.045-8.894-5.139-2.221-11.02-3.334-17.639-3.334-6.621 0-12.524 1.113-17.714 3.334-5.186 2.223-9.56 5.189-13.116 8.894-3.559 3.705-6.253 8.006-8.08 12.895-1.829 4.892-2.742 10.005-2.742 15.342s.913 10.45 2.742 15.342c1.827 4.893 4.521 9.19 8.08 12.895 3.556 3.708 7.93 6.649 13.116 8.821 5.19 2.172 11.093 3.261 17.714 3.261 6.619 0 12.526-1.089 17.713-3.261 5.189-2.172 9.56-5.113 13.118-8.821 3.558-3.705 6.25-8.002 8.079-12.895 1.828-4.892 2.742-10.005 2.742-15.342s-.94-10.45-2.815-15.342c-1.879-4.889-4.595-9.19-8.153-12.895zm-14.824 36.463c-.889 2.521-2.101 4.672-3.631 6.45-1.534 1.777-3.335 3.162-5.411 4.151-2.074.987-4.349 1.481-6.818 1.481-5.04 0-9.19-1.853-12.45-5.558-3.261-3.705-4.893-8.622-4.893-14.75 0-2.963.445-5.705 1.335-8.226.889-2.519 2.098-4.668 3.631-6.447 1.531-1.78 3.359-3.163 5.485-4.151 2.124-.987 4.421-1.481 6.892-1.481 4.941 0 9.042 1.852 12.303 5.558 3.261 3.705 4.892 8.621 4.892 14.747 0 2.966-.445 5.708-1.335 8.226zm173.1275 9.9317c-2.471 1.436-5.188 2.15-8.153 2.15-2.371 0-4.62-.494-6.744-1.481-2.126-.988-3.979-2.374-5.558-4.151-1.583-1.778-2.816-3.928-3.706-6.45-.889-2.517-1.334-5.309-1.334-8.373 0-6.126 1.653-11.017 4.966-14.674 3.309-3.656 7.433-5.484 12.376-5.484 5.929 0 10.425 2.47 13.488 7.411l23.124-6.966c-3.064-6.128-7.659-11.093-13.784-14.897-6.128-3.804-13.689-5.708-22.679-5.708-6.622 0-12.525 1.088-17.714 3.26-5.187 2.175-9.559 5.116-13.118 8.822-3.558 3.705-6.276 8.002-8.152 12.895-1.879 4.891-2.816 10.004-2.816 15.341s.937 10.45 2.816 15.342c1.876 4.89 4.618 9.19 8.226 12.895 3.607 3.705 8.005 6.67 13.192 8.894 5.188 2.225 11.044 3.335 17.566 3.335 8.99 0 16.624-1.927 22.901-5.782 6.274-3.853 10.843-8.794 13.71-14.82l-23.124-7.117c-1.184 2.276-3.014 4.128-5.483 5.558z" fill="#fff" fill-rule="evenodd"/></svg>
